16x16/panel/indicator-workspaces-8.svg

<svg height="16" width="16" xmlns="http://www.w3.org/2000/svg"><path d="m2 0c-1.108 0-2 .892-2 2v9c0 1.108.892 2 2 2h4l-2.29 2c-1.036.906-.946 1 0 1h7.579c.947 0 .947 0 0-1l-2.289-2h4c1.108 0 2-.892 2-2v-9c0-1.108-.892-2-2-2zm0 2h11v9h-11zm3 1v7h5v-7h-4zm1 1h3v2h-3zm0 3h3v2h-3z" fill="#bebebe"/></svg>

<svg xmlns="http://www.w3.org/2000/svg" width="16" height="16"><path d="M2 0C.892 0 0 .892 0 2v9c0 1.108.892 2 2 2h4l-2.29 2c-1.036.906-.946 1 0 1h7.579c.947 0 .947 0 0-1L9 13h4c1.108 0 2-.892 2-2V2c0-1.108-.892-2-2-2zm0 2h11v9H2zm3 1v7h5V3H6zm1 1h3v2H6zm0 3h3v2H6z" fill="currentColor" color="#bebebe"/></svg>
